X:61
T:Ashley’s Hornpipe. JJo.061
T:Astley’s Ride,aka. JJo.061
S:J.Jones MS,1801,N.Shrops.
A:N Shropshire
N:Not at all the usual Ashley’s Hp., nor indeed a hornpipe.
Z:Neil Brookes 2006
M:2/4
L:1/8
Q:1/4=120
K:C
g/e/|ccc B/c/|ddd f/d/|c/B/A/G/ AB|c/d/e/f/ g/e/f/d/|!
ccc B/c/|ddd f/d/|c/B/A/G/ A/c/B/d/|cc[c2C2]::!
c/d/|eee d/e/|fff a/f/|ddd c/d/|eee g/e/|!
ccc B/c/|ddd f/d/|c/B/A/G/ A/c/B/d/|cc[c2C2]:|

